X:94
T:Lord Hardwicks march. Le4.094
M:C
L:1/8
Q:1/4=120
N:NB-all the dotted quavers followed by semi-quavers are also
N:marked as tied notes, which doesn't make sense so I have removed the ties
B:L.Leadley MS#4 c1850
Z:Village Music Project, 2016 Ruairidh Greig
K:F
(c>B)|A2"^NB"A>AA2A2|A3c fcBA|G2G>GG2G2|G3 A B>dc>B|
A2A>A A2A2|A3c fcBA|GdcB AGFE|F2F>FF2:|
|:c'>c'|c'2c'c'c'2c'c'|a2f2c'2c>c|c2c>cc2c>c|A2F2c2c'c'|
c'2c>cc2c'>c'|c'2c>cc2c'>c'|c'c'c'c' c'c'c'c'|c'2c'2c'2c>B|
A2A>AA2A2|A3c fcBA|G2G>GG2G2|G3A B>dc>B|
A2A>AA2A2|A3c fcBA|GdcB AGFE|F2F>FF2:|
|:f4(c3f)|a4(f3a)|c'2e'c'a2c'a|f2(af)c2b2|
a2(f/g/a/b/)c'2b2|a2(f/g/a/b/)c'2b2|a2c'c'a2f2|c'2c>cc2||
c2|c(c/c/) cc cccc|b4g2c2|c(c/c/) cc cccc|b4a2c2|
c(c/c/) cc cccc|b2zz/a/b2zz/a/|bz az gz fz|ez dz cz Bz|
A2A>AA2A2|A3c fcBA|G2G>GG2G2|G3A B>dc>B|
A2A>AA2A2|A3c fcBA|BdcB AGFE|F2F>FF2:|

